X:1
T:Title
%%score { ( 1 3 ) | ( 2 4 ) }
L:1/8
M:6/8
K:Bb
V:1 treble nm="Grand Piano"
V:3 treble 
V:2 bass 
V:4 bass 
V:1
 z3 z2[Q:1/4=92] [DF] | [DB]2 [DB] BA[DG] | [EA]2 [EA] AGF | e2 e edc |[M:5/8] d-d- d3 | %5
[M:1/8] [DF] |[M:3/4] [DB]2 [DB]B A[DG] | [EA]2 [EA]A GF | e2 e d2 c |[M:5/8] [DB]-[DB]- [DB]3 | %10
[M:1/8] [Fd] |[M:3/4] [=Ed]2 [Ec][EG] [FA][GB] | [Bd]2 [Ac] [Ac]2 [FA] | [Ac]2 [GB][=EG] [FA][GB] | %14
[M:5/8] A-A- A3 |[M:1/8] A |[M:3/4] AG F [FB]2 [FB] | cA F [Fd]2 [Fd] | F2 z2 z2 | F6 | F2 z d3 | %21
 d4 z2 | [Fd]c [DB] [F,B,DF]2 [DB] | A6[K:bass] | A2 z e3 | e4 z2 | [Ge]d c[CA] Bc | %27
[M:5/8] d-d- d3 |[M:1/8] [DF] |[M:3/4] [Fd]2 [Fd] [^Fd]2 A | c2 B B2 B | [Ge]2 [Gd] [Gc]2 [GB] | %32
[M:5/8] A-A- A3 |[M:1/8] F |[M:3/4] [FB]2 [FB] [Fc]2 [Fc] |[M:7/8] [Fd]2 [_Af] [Ge]3 [Gc] | %36
[M:3/4] B2 B A2 c |[M:5/8] [DB]-[DB]- [DB]3 |] %38
V:2
 z3 z2 [B,,B,] | [B,,F,]2 [B,,F,] [B,,F,]2 [B,,F,] | [C,F,]2 [C,F,] [C,F,]2 [C,A,] | z3 .C3 | %4
[M:5/8] [B,F]-[B,F]- [B,F]3 |[M:1/8][K:bass] [B,,B,] |[M:3/4] [B,,F,]2 [B,,F,] [B,,F,]2 [B,,F,] | %7
 [C,F,]2 [C,F,] [C,F,]2 [C,A,] | [F,A,F]2 [F,CF] [F,B,F]2 [F,A,E] | %9
[M:5/8] [B,,B,]-[B,,B,]- [B,,B,]3 |[M:1/8] [B,,B,] |[M:3/4] [C,B,]2 [C,B,] [C,C]2 [C,C] | %12
 [F,C]2 [F,C] [F,C]2 [F,C] | [C,C]2 [C,C] [C,C]2 [C,C] |[M:5/8] [F,CF]-[F,CF]- [F,CF]3 | %15
[M:1/8] [F,CF] |[M:3/4] [E,CF]2 [E,C] [D,B,]2 [D,B,] | [C,A,]2 [C,A,] [B,,B,]2 [=B,,_A,] | %18
 .A,2 z2 z2 | z2 B, .C3 | B,2 B, [B,F]2 B, | B,2 z2 z [B,F] | B,-[B,E] .B,2 z F, | F,2 .F,2 z F, | %24
 F,2 F, [A,G]2 A, | F,2 F, [CG]2 [CA] | F,-[F,F] [F,E]F,- [F,D][A,E] | %27
[M:5/8] [B,,B,]2 [B,,B,] [B,,B,]2 |[M:1/8] [B,,B,] |[M:3/4] [B,,B,]2 [B,,B,] [D,A,]2 [^F,D] | %30
 [G,DA]2 [G,DG] [G,DG]2 [G,DG] | [C,C]2 [D,B,] [E,C]2 [=E,C] |[M:5/8] [F,CF]-[F,CF]- [F,CF]3 | %33
[M:1/8] [E,C] |[M:3/4] [D,B,]2 [D,B,] [C,A,]2 [C,A,] |[M:7/8] [B,,B,]2 [D,B,] [E,B,]3 [E,E] | %36
[M:3/4] [F,DF]2 [F,DF] [F,CF]2 [F,A,E] |[M:5/8] [B,,B,]-[B,,B,]- [B,,B,]3 |] %38
V:3
 x6 | z3 .D3 | z3 .E3 | x6 |[M:5/8] x5 |[M:1/8] x |[M:3/4] z2 z .D3 | z2 z .E3 | x6 |[M:5/8] x5 | %10
[M:1/8] x |[M:3/4] x6 | x6 | x6 |[M:5/8] x5 |[M:1/8] x |[M:3/4] x6 | F2 z2 z2 | %18
 cA [A,F] [C=EA]2 [B,CG] | [A,C]2 D .E3 | d2- [Fd]2 z F | F2 [B,F] [B,DF]2 d | x6 | %23
 E2 E[K:bass] [F,E]2 E | e2- [Ae]2 z G | A2 A e2 e | x6 |[M:5/8] F2 F F2 |[M:1/8] x |[M:3/4] x6 | %30
 x6 | x6 |[M:5/8] x5 |[M:1/8] x |[M:3/4] x6 |[M:7/8] x7 |[M:3/4] x6 |[M:5/8] x5 |] %38
V:4
 x6 | x6 | x6 | [F,A,F]2 [F,A,F] [F,F]-[F,B,F][F,A,F] |[M:5/8] x5 |[M:1/8][K:bass] x |[M:3/4] x6 | %7
 x6 | x6 |[M:5/8] x5 |[M:1/8] x |[M:3/4] x6 | x6 | x6 |[M:5/8] x5 |[M:1/8] x |[M:3/4] x6 | x6 | %18
 C,-[C,C] C, C,2 C, | F,6 | B,,3 [F,,F,]3 | B,,3 [F,,F,]3 | B,,3 F,,3 | C,3 F,,3 | C,3 [F,,F,]3 | %25
 C,3 [F,,F,]3 | C,3 F,,3 |[M:5/8] x5 |[M:1/8] x |[M:3/4] x6 | x6 | x6 |[M:5/8] x5 |[M:1/8] x | %34
[M:3/4] x6 |[M:7/8] x7 |[M:3/4] x6 |[M:5/8] x5 |] %38

